src/basic/400/u2B21-hex.svg

<svg width="25" height="32" viewBox="0 0 25 32" fill="none" xmlns="http://www.w3.org/2000/svg">
<path fill-rule="evenodd" clip-rule="evenodd" d="M12.5,1.94098l0.2236,0.1118l12,6l0.2764,0.1382v0.30902v15v0.309l-0.2764,0.1382l-12,6l-0.2236,0.1118l-0.2236,-0.1118l-12.00001,-6l-0.27639,-0.1382v-0.309v-15v-0.30902l0.27639,-0.1382l12.00001,-6zM1,8.80901v14.38199l11.5,5.75l11.5,-5.75v-14.38199l-11.5,-5.75z" fill="black"/>
</svg>

<svg width="25" height="32" viewBox="0 0 25 32" fill="none" xmlns="http://www.w3.org/2000/svg">
<path fill-rule="evenodd" clip-rule="evenodd" d="M12.5 1.94098L12.7236 2.05278L24.7236 8.05278L25 8.19098V8.5V23.5V23.809L24.7236 23.9472L12.7236 29.9472L12.5 30.059L12.2764 29.9472L0.276393 23.9472L0 23.809V23.5V8.5V8.19098L0.276393 8.05278L12.2764 2.05278L12.5 1.94098ZM1 8.80901V23.191L12.5 28.941L24 23.191V8.80901L12.5 3.05901L1 8.80901Z" fill="black"/>
</svg>
